!!!!SEGMENT: pl-sa--79-a-ii-19--001-005_siwinski-andrzej--missa-pro-defunctis-tuba-mirrum.krn
!!!cenid: 17xx:297
!!!COM: Siwiński, Andrzej
!!!COM-rismID: pe41011487
!!!CDT: <1725->1725
!!!CNT:
!!!OPR: Missa pro defunctis
!!!OTL: Tuba mirrum
!!!OMV: 005
!!!PDT: 1726
!!!AGN: Sacred; Mass
!!!YEC: Copyright 2022 Narodowy Instytut Fryderyka Chopina (https://polishscores.org)
!!!YEM: License CC-BY-4.0 (https://creativecommons.org/licenses/by/4.0)
!!!SMS-siglum: PL-SA
!!!SMS-shelfmark: 79/A II 19
!!!SMS-shelfwork: 001-005 M
!!!NIFC-rismSourceID: 1001070177
!!!NIFC-rismChildID: 1001070177
!!!NIFC-islandoraID: none
!!!URL-pdf-islandora:
!!!URL-scan: https://bc.bdsandomierz.pl/dlibra/publication/1356/edition/1324/content @EN{Scan in the Sandomierz Diocese Digital Library} @PL{Skany w portalu Cyfrowa Biblioteka Diecezjalna w Sandomierzu}
!!!IIIF:
!!!ONB-nifc: Uwaga: części Mszy: Requiem, Kyrie, Dies Irae, Quantus tremor, Tuba mirrum, Mors, Quid sum miser, Rex tremende, Quaerens me, Iuste iudex, Oro supplex, Pie Iesu Domine, Domine Iesu Christe,Quam olim Abrahae, Hostias, Sanctus, Osanna, Benedictus, Agnus Dei
!!!AIN: 1 alto 3 empty 2 oboe 2 violn 1 vox
!!!key:
**kern	**fba	**kern	**kern	**kern	**text	**kern	**kern	**kern	**kern	**kern
*part9	*	*part8	*part7	*part6	*	*part5	*part4	*part3	*part2	*part1
*staff9	*	*staff8	*staff7	*staff6	*	*staff5	*staff4	*staff3	*staff2	*staff1
*Iempty	*	*Ivioln	*Ivioln	*Iempty	*	*Iempty	*Ialto	*Ivox	*Ioboe	*Ioboe
*I"P9	*	*I"Violino. 2do	*I"Violino 1mo	*I"P6	*	*I"P5	*I"Alto.	*I"Canto.	*I"Hobois 2do	*I"Hautbo. 1mo.
*I'Org.	*	*I'vn II	*I'vn I	*I'B	*	*I'T	*I'A	*I'C	*I'ob II	*I'ob I
*clefF4	*	*clefG2	*clefG2	*clefF4	*	*clefC4	*clefC3	*clefC1	*clefG2	*clefG2
*k[b-e-]	*	*k[b-e-]	*k[b-e-]	*k[b-e-]	*	*k[b-e-]	*k[b-e-]	*k[b-e-]	*k[b-e-]	*k[b-e-]
*B-:	*	*B-:	*B-:	*B-:	*	*B-:	*B-:	*B-:	*B-:	*B-:
*M2/2	*	*M2/2	*M2/2	*M2/2	*	*M2/2	*M2/2	*M2/2	*M2/2	*M2/2
*met(c|)	*	*met(c|)	*met(c|)	*met(c|)	*	*met(c|)	*met(c|)	*met(c|)	*met(c|)	*met(c|)
=1	=1	=1	=1	=1	=1	=1	=1	=1	=1	=1
!LO:SIC:o:s:=:v:bemole na początku systemu. Brak powtórzenia przy kluczu.	!	!	!	!	!	!	!	!	!	!
!LO:TX:rj:a:t=Solo	!	!	!	!	!	!	!	!	!	!LO:SIC:o:s:=:v:bemole na początku systemu. Brak powtórzenia przy kluczu.
!LO:TX:b:t=Tuba mirum. Baſo.	!	!	!	!	!	!	!	!	!	!
!LO:TX:rj:b:t=Hautb. 2 .	!	!	!	!LO:TX:a:t=Solo	!	!LO:TX:a:t=Tuba Miru(m) \nTacet Basſo	!	!	!	!LO:TX:a:i:t=Solo
!LO:SIC:o:s:=:v: brak nazwy partii (na stronie tytułowej "Baſso pro Organo")	!	!LO:TX:a:t=Tuba Miru(m)\nTacet	!LO:TX:a:t=Tubamirum Baſso \nH Hautbo 2 \nTacet	!LO:SIC:o:s:=:v: brak nazwy partii (na stronie tytułowej "Baſso vocali")	!	!LO:SIC:o:s:=:v: brak nazwy partii (na stronie tytułowej "Tenore")	!LO:TX:a:t=Tuba Miru(m) \nBaſso. Solo.	!LO:TX:b:t=Tuba Miru(m) \nTacet. B. Solo.	!LO:TX:b:t=Tuba Mirum	!LO:TX:b:t=Tuba mirum. Baſ.
[<1E-\	.	1ryy	1ryy	1r	.	1ryy	1ryy	1ryy	2r	16r
.	.	.	.	.	.	.	.	.	.	16e-/LL
.	.	.	.	.	.	.	.	.	.	16e-/
.	.	.	.	.	.	.	.	.	.	16e-/JJ
.	.	.	.	.	.	.	.	.	.	4e-/
.	.	.	.	.	.	.	.	.	16r	16r
.	.	.	.	.	.	.	.	.	16e-/LL	16g/LL
.	.	.	.	.	.	.	.	.	16e-/	16g/
.	.	.	.	.	.	.	.	.	16e-/JJ	16g/JJ
.	.	.	.	.	.	.	.	.	4e-/	4g/
=2	=2	=2	=2	=2	=2	=2	=2	=2	=2	=2
1E-\]	.	1ryy	1ryy	2r	.	1ryy	1ryy	1ryy	16r	16r
.	.	.	.	.	.	.	.	.	16g/LL	16b-/LL
.	.	.	.	.	.	.	.	.	16g/	16b-/
.	.	.	.	.	.	.	.	.	16g/JJ	16b-/JJ
.	.	.	.	.	.	.	.	.	16g/LL	16ee-\LL
.	.	.	.	.	.	.	.	.	16e-/	16b-\
.	.	.	.	.	.	.	.	.	16e-/	16g\
.	.	.	.	.	.	.	.	.	16e-/JJ	16b-\JJ
!	!	!	!	!	!	!	!	!	!	!LO:LB;g=original
.	.	.	.	4r	.	.	.	.	4e-/	4e-/
.	.	.	.	8G\	Tu-	.	.	.	4r	4r
.	.	.	.	8E-\	-ba	.	.	.	.	.
=3	=3	=3	=3	=3	=3	=3	=3	=3	=3	=3
!	!	!	!	!LO:SIC:o:s:t:=:v:możliwe, że to jest ćwierćnuta zlegowana z szesnastką i 3 szesnastki...	!	!	!	!	!	!
2D\	6	1ryy	1ryy	(4.B-\	tu-	1ryy	1ryy	1ryy	1r	2r
*	*	*	*	*Xtuplet	*	*	*	*	*	*
.	.	.	.	24c\LL)	.	.	.	.	.	.
.	.	.	.	24B-\	.	.	.	.	.	.
!	!	!	!	!LO:SIC:o:s:=:v: bemol nad nutą	!	!	!	!	!	!
.	.	.	.	24A-X\JJ	.	.	.	.	.	.
2E-\	.	.	.	4G\	-ba	.	.	.	.	16r
.	.	.	.	.	.	.	.	.	.	16e-/LL
.	.	.	.	.	.	.	.	.	.	16e-/
.	.	.	.	.	.	.	.	.	.	16e-/JJ
.	.	.	.	4r	.	.	.	.	.	4e-/
=4	=4	=4	=4	=4	=4	=4	=4	=4	=4-	=4
[1E-\	.	1ryy	1ryy	1r	.	1ryy	1ryy	1ryy	16r	16r
.	.	.	.	.	.	.	.	.	16e-/LL	16g/LL
.	.	.	.	.	.	.	.	.	16e-/	16g/
.	.	.	.	.	.	.	.	.	16e-/JJ	16g/JJ
.	.	.	.	.	.	.	.	.	4e-/	4g/
.	.	.	.	.	.	.	.	.	16r	16r
.	.	.	.	.	.	.	.	.	16g/LL	16b-/LL
.	.	.	.	.	.	.	.	.	16g/	16b-/
.	.	.	.	.	.	.	.	.	16g/JJ	16b-/JJ
.	.	.	.	.	.	.	.	.	16g/LL	16ee-\LL
.	.	.	.	.	.	.	.	.	16e-/	16b-\
.	.	.	.	.	.	.	.	.	16e-/	16g\
.	.	.	.	.	.	.	.	.	16e-/JJ	16b-\JJ
=5	=5	=5	=5	=5	=5	=5	=5	=5	=5	=5
2E-\]	.	1ryy	1ryy	4r	.	1ryy	1ryy	1ryy	4g/	4e-/
*	*	*	*	*	*ij	*	*	*	*	*
.	.	.	.	8G\	Tu-	.	.	.	4r	4r
.	.	.	.	8E-\	-ba	.	.	.	.	.
2D\	6	.	.	4.B-\	tu-	.	.	.	2r	2r
.	.	.	.	24c\LL	.	.	.	.	.	.
.	.	.	.	24B-\	.	.	.	.	.	.
!	!	!	!	!LO:SIC:o:s:=:v: bemol nad nutą	!	!	!	!	!	!
.	.	.	.	24A-X\JJ	.	.	.	.	.	.
=6	=6	=6	=6	=6	=6	=6	=6	=6	=6	=6
4E-\	.	1ryy	1ryy	4G\	-ba	1ryy	1ryy	1ryy	16r	16r
.	.	.	.	.	.	.	.	.	16g/LL	16b-/LL
.	.	.	.	.	.	.	.	.	16g/	16b-/
.	.	.	.	.	.	.	.	.	16g/JJ	16b-/JJ
4r	.	.	.	4r	.	.	.	.	16g/LL	16ee-\LL
.	.	.	.	.	.	.	.	.	16e-/	16b-\
.	.	.	.	.	.	.	.	.	16e-/	16g\
.	.	.	.	.	.	.	.	.	16e-/JJ	16b-\JJ
*	*	*	*	*	*Xij	*	*	*	*	*
8E-\L	.	.	.	4.B-\	tu-	.	.	.	4g/	4e-/
8F\	.	.	.	.	.	.	.	.	.	.
8G\	.	.	.	.	.	.	.	.	4r	4r
8E-\J	6	.	.	8c\	-ba	.	.	.	.	.
=7	=7	=7	=7	=7	=7	=7	=7	=7	=7	=7
!	!	!	!	!	!	!	!	!	!LO:TX:a:t=6	!
8F\L	.	1ryy	1ryy	8A-X\	mi-	1ryy	1ryy	1ryy	00r	00r
8E-\J	.	.	.	8G\	-ru(m)	.	.	.	.	.
8D/L	.	.	.	8A-\	spar-	.	.	.	.	.
8BB-/J	.	.	.	16B-\LL	-gens	.	.	.	.	.
.	.	.	.	(16A-X\JJ	.	.	.	.	.	.
4E-\	.	.	.	8G\)	ſo-	.	.	.	.	.
.	.	.	.	8E-\	-nu(m)	.	.	.	.	.
4D\	6	.	.	8B-\	per	.	.	.	.	.
.	.	.	.	8F\	ſe-	.	.	.	.	.
!	!	!	!	!LO:LB:g=original	!	!	!	!	!	!
=8	=8	=8	=8	=8	=8	=8	=8	=8	=8	=8
!	!	!	!	!LO:SIC:o:s:=:v:-pulch-	!	!	!	!	!	!
4E-\	.	1ryy	1ryy	8G\	-puh-	1ryy	1ryy	1ryy	.	.
.	.	.	.	8An\	-ra	.	.	.	.	.
4D\	6	.	.	(4.B-\	re-	.	.	.	.	.
!LO:LB;g=original	!	!	!	!	!	!	!	!	!	!
8E-/L	.	.	.	.	.	.	.	.	.	.
8BB-/J	.	.	.	16c\LL	-gi-	.	.	.	.	.
.	.	.	.	16d\JJ)	.	.	.	.	.	.
8F/L	.	.	.	4An\	-o-	.	.	.	.	.
.	4	.	.	.	.	.	.	.	.	.
8FF/J	3	.	.	.	.	.	.	.	.	.
=9	=9	=9	=9	=9	=9	=9	=9	=9	=9	=9
4BB-/	6\	1ryy	1ryy	4B-\	-nu(m)	1ryy	1ryy	1ryy	.	.
4GG/	5	.	.	8BB-/	Co-	.	.	.	.	.
.	4	.	.	(16E-\LL	-get	.	.	.	.	.
.	.	.	.	16D\JJ)	.	.	.	.	.	.
4AA-X/	6	.	.	8C/	om-	.	.	.	.	.
.	6\	.	.	8C/	-nes	.	.	.	.	.
4AAn/	5	.	.	8C/	Co-	.	.	.	.	.
.	.	.	.	(16F\LL	-get	.	.	.	.	.
.	.	.	.	16E-\JJ)	.	.	.	.	.	.
=10	=10	=10	=10	=10	=10	=10	=10	=10	=10	=10
4BB-/	.	1ryy	1ryy	8D\	om-	1ryy	1ryy	1ryy	.	.
.	.	.	.	8D\	-nes	.	.	.	.	.
4GG/	.	.	.	8E-\	an-	.	.	.	.	.
.	.	.	.	(16F\LL	-te	.	.	.	.	.
.	.	.	.	16G\JJ)	.	.	.	.	.	.
!	!	!	!	!LO:SIC:o:s:=:v:-thro-	!	!	!	!	!	!
4AA-X/	.	.	.	16A-X\LL	tro-	.	.	.	.	.
.	.	.	.	16B-\	.	.	.	.	.	.
.	.	.	.	16G\	.	.	.	.	.	.
.	.	.	.	16A-\JJ	.	.	.	.	.	.
4BB-/	4	.	.	4F\	.	.	.	.	.	.
.	3	.	.	.	.	.	.	.	.	.
=11	=11	=11	=11	=11	=11	=11	=11	=11	=11	=11
4EE-/	6\	1ryy	1ryy	4E-\	-num	1ryy	1ryy	1ryy	0r	0r
4GG/	5	.	.	8BB-/	Co-	.	.	.	.	.
.	4	.	.	(16E-\LL	-get	.	.	.	.	.
.	.	.	.	16D\JJ)	.	.	.	.	.	.
4AA-X/	6	.	.	8C/	om-	.	.	.	.	.
.	.	.	.	8C/	-nes	.	.	.	.	.
4AAn/	6\	.	.	8C/	Co-	.	.	.	.	.
.	5	.	.	(16F\LL	-get	.	.	.	.	.
.	.	.	.	16E-\JJ)	.	.	.	.	.	.
!	!	!	!	!LO:LB;g=original	!	!	!	!	!	!
=12	=12	=12	=12	=12	=12	=12	=12	=12	=12	=12
4BB-/	.	1ryy	1ryy	8D\	om-	1ryy	1ryy	1ryy	.	.
.	.	.	.	8D\	-nes	.	.	.	.	.
4GG/	.	.	.	8E-\	an-	.	.	.	.	.
.	.	.	.	(16F\LL	-te	.	.	.	.	.
.	.	.	.	16G\JJ)	.	.	.	.	.	.
4AA-X/	.	.	.	16A-X\LL	tro-	.	.	.	.	.
.	.	.	.	(16B-\	.	.	.	.	.	.
.	.	.	.	16G\	.	.	.	.	.	.
.	.	.	.	16A-\JJ)	.	.	.	.	.	.
4BB-/	.	.	.	4F\	.	.	.	.	.	.
!	!	!	!	!	!	!	!	!	!LO:LB:g=original	!
=13	=13	=13	=13	=13	=13	=13	=13	=13	=13	=13
[>1EE-/	.	1ryy	1ryy	4E-\	-num	1ryy	1ryy	1ryy	2r	16r
.	.	.	.	.	.	.	.	.	.	16e-/LL
.	.	.	.	.	.	.	.	.	.	16e-/
.	.	.	.	.	.	.	.	.	.	16e-/JJ
.	.	.	.	4r	.	.	.	.	.	4e-/
.	.	.	.	2r	.	.	.	.	16r	16r
.	.	.	.	.	.	.	.	.	16e-/LL	16g/LL
.	.	.	.	.	.	.	.	.	16e-/	16g/
.	.	.	.	.	.	.	.	.	16e-/JJ	16g/JJ
.	.	.	.	.	.	.	.	.	4e-/	4g/
!	!	!	!	!	!	!	!	!	!	!LO:LB:g=original
=14	=14	=14	=14	=14	=14	=14	=14	=14	=14	=14
!	!	!	!LO:TX:b:t=Vertecito	!	!	!	!	!	!	!
1EE-/]	.	1ryy	1ryy	1r	.	1ryy	1ryy	1ryy	16r	16r
.	.	.	.	.	.	.	.	.	16g/LL	16b-/LL
.	.	.	.	.	.	.	.	.	16g/	16b-/
.	.	.	.	.	.	.	.	.	16g/JJ	16b-/JJ
.	.	.	.	.	.	.	.	.	16g/LL	16ee-\LL
.	.	.	.	.	.	.	.	.	16e-/	16b-\
.	.	.	.	.	.	.	.	.	16e-/	16g\
.	.	.	.	.	.	.	.	.	16e-/JJ	16b-\JJ
.	.	.	.	.	.	.	.	.	16e-/LL	8g/L
.	.	.	.	.	.	.	.	.	16e-/	.
.	.	.	.	.	.	.	.	.	16e-/	16g/L
.	.	.	.	.	.	.	.	.	16e-/JJ	16g/JJ
.	.	.	.	.	.	.	.	.	4e-/	4g/
=||	=||	=||	=||	=||	=||	=||	=||	=||	=||	=||
*-	*-	*-	*-	*-	*-	*-	*-	*-	*-	*-
!!!system-decoration: [(s1,s2)][(s3,s4,s5,s6)][(s7,s8)]s9
!!!RDF**kern: > = above
!!!RDF**kern: < = below
!!!EED: Leszek Kubiak
!!!EEV: 2020-12-01
!!!ENC: Andrzej Borzym
!!!END: 2020-04-29
